assets/logos/color_logo/supergrafx.svg

<?xml version="1.0" encoding="UTF-8"?>
<svg width="396px" height="155px" viewBox="0 0 396 155" version="1.1" xmlns="http://www.w3.org/2000/svg" xmlns:xlink="http://www.w3.org/1999/xlink">
    <title>mainlogo</title>
    <g id="Page-1" stroke="none" stroke-width="1" fill="none" fill-rule="evenodd">
        <g id="mainlogo">
            <g id="Group-56" transform="translate(79.000000, 0.000000)" fill="#009BB3" fill-rule="nonzero">
                <polygon id="Path" points="45.223 0 13.956 0 0.277 15.634 0.277 48.855 15.91 64.488 29.589 64.488 29.589 42.992 23.727 42.992 23.727 19.542 39.36 19.542 39.36 35.176 60.856 35.176 60.856 15.634"></polygon>
                <polygon id="Path" points="15.91 109.434 49.131 109.434 62.81 93.801 62.81 58.626 47.177 42.992 33.498 42.992 33.498 64.488 39.36 64.488 39.36 87.938 23.727 87.938 23.727 72.304 0.277 72.304 0.277 93.801"></polygon>
                <polygon id="Path" points="66.718 93.801 83.329 109.434 96.031 109.434 96.031 89.893 90.168 89.893 90.168 4.26325641e-14 66.718 4.26325641e-14"></polygon>
                <polygon id="Path" points="129.251 93.801 112.642 109.434 99.939 109.434 99.939 89.893 105.801 89.893 105.801 4.26325641e-14 129.251 4.26325641e-14"></polygon>
                <polygon id="Path" points="162.473 7.10542736e-15 162.473 19.542 170.289 19.542 170.289 52.763 162.473 52.763 162.473 74.259 178.105 74.259 193.739 58.626 193.739 16.611 177.129 7.10542736e-15"></polygon>
                <rect id="Rectangle" x="135.114" y="-7.10542736e-15" width="23.45" height="109.433"></rect>
                <polygon id="Path" points="223.051 21.497 248.456 21.497 248.456 4.26325641e-14 201.556 4.26325641e-14 201.556 109.434 248.456 109.434 248.456 89.893 223.051 89.893"></polygon>
                <rect id="Rectangle" x="226.96" y="42.992" width="15.634" height="19.542"></rect>
                <polygon id="Path" points="283.631 4.26325641e-14 301.219 4.26325641e-14 316.852 15.634 316.852 44.946 306.104 55.694 316.852 66.442 316.852 109.434 295.355 109.434 295.355 66.442 283.631 66.442 283.631 44.946 293.401 44.946 293.401 19.542 283.631 19.542"></polygon>
                <rect id="Rectangle" x="256.273" y="-7.10542736e-15" width="23.448" height="109.433"></rect>
                <polygon id="Path" points="4.886 121.158 -2.94875235e-13 126.044 -2.94875235e-13 148.518 6.351 154.868 42.015 154.868 42.015 134.838 22.474 134.838 22.474 140.701 36.152 140.701 36.152 148.518 8.794 148.518 8.794 127.021 42.015 127.021 42.015 121.158"></polygon>
                <path d="M88.915,135.815 L88.915,127.021 L83.053,121.158 L49.832,121.158 L49.832,154.379 L57.648,154.379 L57.648,140.701 L71.327,140.701 L81.098,154.379 L88.915,154.379 L79.144,140.701 L83.053,140.701 L88.915,135.815 Z M81.098,134.838 L57.648,134.838 L57.648,127.022 L81.098,127.022 L81.098,134.838 Z" id="Shape"></path>
                <polygon id="Path" points="92.823 154.379 108.457 121.158 124.09 121.158 141.678 154.379 131.906 154.379 118.228 128.976 114.319 128.976 102.594 154.379"></polygon>
                <polygon id="Path" points="143.631 121.158 143.631 154.379 151.448 154.379 151.448 140.701 176.852 140.701 176.852 134.838 151.448 134.838 151.448 127.021 180.76 127.021 180.76 121.158"></polygon>
                <polygon id="Path" points="184.669 121.158 200.303 136.792 182.715 154.379 194.439 154.379 206.165 142.654 217.89 154.379 229.614 154.379 212.027 136.792 229.614 121.158 217.89 121.158 206.165 132.884 194.439 121.158"></polygon>
            </g>
            <g id="Group-53" transform="translate(0.000000, 11.000000)">
                <path d="M30.3588539,2 C21.9636016,6.07459027 17.0777653,10.9817923 17.2811002,16.1277327 C17.612181,24.6106066 31.6760777,31.558347 52.2150109,34.7841093" id="path22" stroke="#009BB3" stroke-width="1.26125992" stroke-linecap="round" stroke-linejoin="round" transform="translate(34.745003, 18.392055) scale(-1, 1) rotate(-270.000000) translate(-34.745003, -18.392055) "></path>
                <path d="M41.3076083,83.0491299 C48.6695825,82.6966978 55.7072327,81.9493112 62.2293879,80.8781412" id="path24" stroke="#009BB3" stroke-width="1.26125992" stroke-linecap="round" stroke-linejoin="round" transform="translate(51.768498, 81.963636) scale(-1, 1) rotate(-270.000000) translate(-51.768498, -81.963636) "></path>
                <path d="M24.5086045,123.882162 C45.5395732,119.421807 59.7119906,111.440554 59.4402791,102.766149 C59.0714507,90.9088819 31.8540021,82.0146752 -2.45533081,82.1067291" id="path26" stroke="#009BB3" stroke-width="1.26125992" stroke-linecap="round" stroke-linejoin="round" transform="translate(28.494394, 102.994092) scale(-1, 1) rotate(-270.000000) translate(-28.494394, -102.994092) "></path>
                <polyline id="path28" fill="#009BB3" fill-rule="nonzero" transform="translate(41.151572, 80.668862) scale(-1, 1) rotate(-270.000000) translate(-41.151572, -80.668862) " points="44.476614 79.3289537 61.1274071 92.0213726 41.5703108 84.2148944 36.0744607 89.9354289 37.8267111 82.0085905 21.1757378 69.3163517 40.7331945 77.124992 46.2288644 71.4042774 44.476614 79.3289537"></polyline>
                <path d="M8.37158304,82.9030282 L9.67950958,89.9385162 L14.5841891,90.7165334 C15.2274316,90.8183351 15.5562601,90.4516688 15.4285125,89.7729308 L14.5344594,84.9579809 C14.4067118,84.2770807 13.9196853,83.782847 13.2764427,83.6810453 L8.37158304,82.9030282 L8.37158304,82.9030282 Z M64.1281004,62.7426892 L65.4664774,69.9365554 C65.8900805,72.211508 68.3353032,74.4462804 70.4185442,74.7774512 L79.4309671,76.205738 C80.9493438,76.446999 82.0041175,74.7513251 81.6942079,73.0911467 L81.251866,70.776014 C80.9421366,69.1160158 79.2466429,67.3515131 77.7284463,67.1104323 L68.373141,65.6253888 L68.2381861,64.7859303 C68.060889,63.8304358 68.6947622,63.0853915 69.5697163,63.225031 L80.0270025,64.8900743 L79.3223185,61.0965648 L67.5264752,59.2259362 C65.443054,58.8949455 63.7070198,60.4652141 64.1281004,62.7426892 L64.1281004,62.7426892 Z M40.7535306,70.0713301 L44.5210942,70.6671853 L41.6286648,55.1158504 L37.7765969,54.5056169 L40.6663235,70.0547535 L40.7535306,70.0713301 L40.7535306,70.0713301 Z M15.7027464,51.0032242 L11.8479757,50.3934951 L13.7258116,60.4913402 C13.9622077,61.7565641 13.5791451,62.1677349 12.3589662,61.9740414 L5.64257693,60.9071956 L3.44095764,49.0594605 L-0.413813038,48.4470647 L2.4760938,63.9983635 L2.56600362,64.0125978 L15.3526567,66.0414244 C17.2872493,66.3489917 18.337158,65.1760199 17.9564377,63.1304365 L15.7027464,51.0032242 Z M-2.80930599,52.0203222 L-3.56624212,47.9478941 L-19.6826574,45.3915364 L-14.6597439,72.4219582 L-1.34552376,74.5336677 L-2.03381132,70.8304284 L-11.4932607,69.3286281 L-12.9381241,61.5529607 L-5.23092504,62.7756621 L-5.9192126,59.0744048 L-13.6262314,57.8518836 L-15.0734371,50.074018 L-2.80930599,52.0203222 Z M-2.25831558,54.9834362 L-11.3678555,53.538753 L-11.0249729,55.387742 L-3.66786364,56.5562093 L-1.87759527,66.1834063 L-9.23470457,65.0151192 L-8.89182206,66.866829 L0.217537643,68.3118725 L-2.25831558,54.9834362 L-2.25831558,54.9834362 Z M17.9564377,48.4871728 L18.0157169,48.8111544 C18.2663473,48.7924337 18.6020226,48.6952987 18.8951755,48.7401996 L26.4699422,49.9274235 C26.1885011,48.4160197 24.1926473,48.0376417 21.1467046,47.5556603 L17.6798614,47.0043455 L15.8209445,37.0083021 L20.3757144,37.7295842 C31.5897566,38.8362101 35.8564187,44.63224 37.2252461,51.5427011 L50.8893757,53.7112033 L53.090995,65.5592628 L54.2027056,65.7365599 C55.4207223,65.9304336 55.2409026,66.1504333 55.0068488,64.8850293 L52.9917158,54.0445363 L62.8014352,55.6007148 L62.9360296,56.319633 C63.6763892,55.993327 64.5419739,55.8772911 65.4572882,56.0217954 L82.4224954,58.7129637 L84.0046559,67.2286304 L82.9050174,68.0116926 C83.8581696,69.1396193 84.6005111,70.520699 84.8158262,71.6794365 L85.0830331,73.0226783 C85.9296989,78.0455558 81.2992534,79.3794283 79.1850214,79.0435728 L69.4489957,77.4992501 C67.7248534,77.2250162 65.8261166,76.0237562 64.445037,74.4320462 C63.1679213,75.69727 61.1956711,76.1891614 60.0486453,76.0071796 L49.2104586,74.2879022 L50.4236105,71.6061032 L60.1999965,73.1551106 C61.6093644,73.3796148 62.5504444,72.8169127 62.8084622,71.7006977 C62.7044983,71.4050223 60.1999965,58.062514 60.1999965,58.062514 L56.6951353,57.5066587 L58.5731514,67.6070084 C58.8072052,68.8720521 58.4241425,69.281421 57.2061258,69.0875473 L50.4897365,68.0208818 L48.2859551,56.1729664 L44.4333466,55.5603545 L46.954425,69.1253851 L43.783077,72.8666424 L32.3656116,68.7397999 L37.7765969,69.5983576 L37.863804,69.6100693 L34.4230869,51.098161 C33.5479527,46.394202 28.5297598,41.8985672 24.0789538,41.1915049 L19.524364,40.4700822 L20.2149939,44.1736999 L23.6794947,44.7223299 C26.7254374,45.2070502 30.1544428,48.255119 30.7456133,51.4432598 L31.1193066,53.448663 L22.0973342,52.0178537 C20.1629219,51.7104306 19.1128329,52.8857447 19.4937334,54.929166 L21.1112092,63.6318774 C21.397335,65.1783623 22.3621988,66.4625051 23.6535488,67.1293512 L23.6746299,67.361423 L28.2009314,70.8446626 L25.5571504,70.3999784 C24.1501248,70.1776363 21.541479,69.1230428 19.8838231,67.0088108 C18.6304911,68.5032236 16.4382411,69.0898897 15.203828,68.8936737 L5.47933386,67.349351 L7.06401686,75.8675401 L14.1586039,76.9933047 C17.9351765,77.5915023 22.1139108,81.8388851 22.8564325,85.8282503 L23.9230981,91.5678838 C24.6656198,95.5597715 21.8585957,98.6979663 18.081843,98.0995886 L2.57771532,95.6401317 L-0.725884779,77.8659164 L-15.0026264,75.6003332 C-16.2109134,75.4088019 -17.3864076,74.2169112 -17.6228038,72.9397955 L-22.9580594,44.2421683 C-23.1945456,42.9652147 -22.4070329,42.0832517 -21.1985657,42.2746208 L6.04239632,46.5976793 L8.24635795,58.4457568 L9.35554596,58.6230539 C10.5757248,58.8145853 10.3960854,59.0344048 10.1595091,57.769181 L8.14455625,46.9311564 L17.9564377,48.4871728 Z M69.0918789,69.4895289 L69.0091763,69.04016 L76.2974569,70.1965552 C76.872231,70.2889875 77.4329512,70.8706085 77.5511492,71.4996168 C77.667005,72.1286252 77.295654,72.56394 76.72106,72.4716879 L74.8477287,72.1760125 L71.8614255,71.7006977 L71.1044894,71.5824996 C70.2293552,71.4428601 69.269176,70.4450234 69.0918789,69.4895289 L69.0918789,69.4895289 Z M24.2375121,62.1587259 L23.3742698,57.5138659 C23.1378737,56.2464799 23.5209363,55.8372911 24.7412954,56.0311648 L31.8072338,57.1518843 L33.3209259,65.2967405 L26.2548073,64.178003 C25.0344482,63.9841293 24.4717461,63.4261119 24.2375121,62.1587259 L24.2375121,62.1587259 Z M26.6425546,60.4652141 C26.8814733,61.6407084 27.316608,61.4702581 28.5084986,61.6592669 L29.6176866,61.8345821 L29.2724618,59.9852146 L28.1630936,59.8079175 C26.9713831,59.6185484 26.4463386,59.2992694 26.6425546,60.4652141" id="path30" fill="#009BB3" fill-rule="nonzero" transform="translate(31.092618, 67.590656) scale(-1, 1) rotate(-270.000000) translate(-31.092618, -67.590656) "></path>
                <path d="M55.1002743,64.2335864 L54.0595546,68.3579064 L53.4730688,68.2869154 L53.2842402,67.2699796 C53.1541502,66.5652957 52.5864031,65.9907017 51.9217191,65.8842153 L47.892354,65.2456574 C47.22767,65.1393512 46.8467695,65.5649364 46.9772198,66.2696203 L49.0083888,77.1930321 C49.1384788,77.8953737 49.7058656,78.4701479 50.3705496,78.5764541 L54.400275,79.215012 C55.0645986,79.3214983 55.4456793,78.895733 55.315229,78.1932112 L55.0552293,76.8027623 L63.2024278,78.0964546 L63.5121572,79.7613177 C64.2923366,83.9636556 61.435763,87.1586071 57.4579294,86.5294186 L49.6635233,85.2926632 C45.688032,84.6613125 41.4312798,80.338254 40.6509202,76.1360963 L38.4824541,64.4725051 C37.7019144,60.2701672 40.5586681,57.0752156 44.5365017,57.7065663 L47.1424449,58.1180974 L55.1002743,64.2335864" id="path32" fill="#009BB3" fill-rule="nonzero" transform="translate(50.997255, 72.117739) scale(-1, 1) rotate(-270.000000) translate(-50.997255, -72.117739) "></path>
                <path d="M47.9064302,79.6899443 C48.1195831,80.2623761 48.2660694,80.4798533 48.3750783,81.0663392 L48.6516546,82.5490403 L45.4091355,82.0335454 L47.9064302,79.6899443" id="path34" fill="#009BB3" fill-rule="nonzero" transform="translate(47.030395, 81.119492) scale(-1, 1) rotate(-270.000000) translate(-47.030395, -81.119492) "></path>
            </g>
        </g>
    </g>
</svg>

<?xml version="1.0" encoding="UTF-8" standalone="no"?>
<svg
   xmlns:dc="http://purl.org/dc/elements/1.1/"
   xmlns:cc="http://creativecommons.org/ns#"
   xmlns:rdf="http://www.w3.org/1999/02/22-rdf-syntax-ns#"
   xmlns:svg="http://www.w3.org/2000/svg"
   xmlns="http://www.w3.org/2000/svg"
   xmlns:sodipodi="http://sodipodi.sourceforge.net/DTD/sodipodi-0.dtd"
   xmlns:inkscape="http://www.inkscape.org/namespaces/inkscape"
   width="396px"
   height="155px"
   viewBox="0 0 396 155"
   version="1.1"
   id="svg42"
   sodipodi:docname="supergrafx.svg"
   inkscape:version="0.92.5 (2060ec1f9f, 2020-04-08)">
  <metadata
     id="metadata48">
    <rdf:RDF>
      <cc:Work
         rdf:about="">
        <dc:format>image/svg+xml</dc:format>
        <dc:type
           rdf:resource="http://purl.org/dc/dcmitype/StillImage" />
      </cc:Work>
    </rdf:RDF>
  </metadata>
  <defs
     id="defs46" />
  <sodipodi:namedview
     pagecolor="#ffffff"
     bordercolor="#666666"
     borderopacity="1"
     objecttolerance="10"
     gridtolerance="10"
     guidetolerance="10"
     inkscape:pageopacity="0"
     inkscape:pageshadow="2"
     inkscape:window-width="1366"
     inkscape:window-height="740"
     id="namedview44"
     showgrid="false"
     inkscape:zoom="1.4749053"
     inkscape:cx="198"
     inkscape:cy="77.5"
     inkscape:window-x="0"
     inkscape:window-y="0"
     inkscape:window-maximized="1"
     inkscape:current-layer="svg42" />
  <title
     id="title2">mainlogo</title>
  <g
     id="Page-1"
     transform="matrix(0.94683511,0,0,0.90806234,0.02712813,0)"
     style="fill:none;fill-rule:evenodd;stroke:none;stroke-width:1">
    <g
       id="mainlogo">
      <g
         id="Group-56"
         transform="translate(79)"
         style="fill:#009bb3;fill-rule:nonzero">
        <polygon
           id="Path"
           points="13.956,0 0.277,15.634 0.277,48.855 15.91,64.488 29.589,64.488 29.589,42.992 23.727,42.992 23.727,19.542 39.36,19.542 39.36,35.176 60.856,35.176 60.856,15.634 45.223,0 " />
        <polygon
           id="polygon5"
           points="49.131,109.434 62.81,93.801 62.81,58.626 47.177,42.992 33.498,42.992 33.498,64.488 39.36,64.488 39.36,87.938 23.727,87.938 23.727,72.304 0.277,72.304 0.277,93.801 15.91,109.434 " />
        <polygon
           id="polygon7"
           points="83.329,109.434 96.031,109.434 96.031,89.893 90.168,89.893 90.168,4.2632564e-14 66.718,4.2632564e-14 66.718,93.801 " />
        <polygon
           id="polygon9"
           points="112.642,109.434 99.939,109.434 99.939,89.893 105.801,89.893 105.801,4.2632564e-14 129.251,4.2632564e-14 129.251,93.801 " />
        <polygon
           id="polygon11"
           points="162.473,19.542 170.289,19.542 170.289,52.763 162.473,52.763 162.473,74.259 178.105,74.259 193.739,58.626 193.739,16.611 177.129,7.1054274e-15 162.473,7.1054274e-15 " />
        <rect
           id="Rectangle"
           x="135.114"
           y="-7.1054274e-15"
           width="23.450001"
           height="109.433" />
        <polygon
           id="polygon14"
           points="248.456,21.497 248.456,4.2632564e-14 201.556,4.2632564e-14 201.556,109.434 248.456,109.434 248.456,89.893 223.051,89.893 223.051,21.497 " />
        <rect
           id="rect16"
           x="226.96001"
           y="42.992001"
           width="15.634"
           height="19.542" />
        <polygon
           id="polygon18"
           points="301.219,4.2632564e-14 316.852,15.634 316.852,44.946 306.104,55.694 316.852,66.442 316.852,109.434 295.355,109.434 295.355,66.442 283.631,66.442 283.631,44.946 293.401,44.946 293.401,19.542 283.631,19.542 283.631,4.2632564e-14 " />
        <rect
           id="rect20"
           x="256.27301"
           y="-7.1054274e-15"
           width="23.448"
           height="109.433" />
        <polygon
           id="polygon22"
           points="-2.9487524e-13,126.044 -2.9487524e-13,148.518 6.351,154.868 42.015,154.868 42.015,134.838 22.474,134.838 22.474,140.701 36.152,140.701 36.152,148.518 8.794,148.518 8.794,127.021 42.015,127.021 42.015,121.158 4.886,121.158 " />
        <path
           d="m 88.915,135.815 v -8.794 l -5.862,-5.863 H 49.832 v 33.221 h 7.816 v -13.678 h 13.679 l 9.771,13.678 h 7.817 l -9.771,-13.678 h 3.909 z m -7.817,-0.977 h -23.45 v -7.816 h 23.45 z"
           id="Shape"
           inkscape:connector-curvature="0" />
        <polygon
           id="polygon25"
           points="108.457,121.158 124.09,121.158 141.678,154.379 131.906,154.379 118.228,128.976 114.319,128.976 102.594,154.379 92.823,154.379 " />
        <polygon
           id="polygon27"
           points="143.631,154.379 151.448,154.379 151.448,140.701 176.852,140.701 176.852,134.838 151.448,134.838 151.448,127.021 180.76,127.021 180.76,121.158 143.631,121.158 " />
        <polygon
           id="polygon29"
           points="200.303,136.792 182.715,154.379 194.439,154.379 206.165,142.654 217.89,154.379 229.614,154.379 212.027,136.792 229.614,121.158 217.89,121.158 206.165,132.884 194.439,121.158 184.669,121.158 " />
      </g>
      <g
         id="Group-53"
         transform="translate(0,11)">
        <path
           d="M 30.358854,2 C 21.963602,6.0745903 17.077765,10.981792 17.2811,16.127733 c 0.331081,8.482874 14.394978,15.430614 34.933911,18.656376"
           id="path22"
           transform="matrix(0,1,1,0,16.352948,-16.352948)"
           inkscape:connector-curvature="0"
           style="stroke:#009bb3;stroke-width:1.26125991;stroke-linecap:round;stroke-linejoin:round" />
        <path
           d="m 41.307608,83.04913 c 7.361974,-0.352432 14.399625,-1.099819 20.92178,-2.170989"
           id="path24"
           transform="matrix(0,1,1,0,-30.195138,30.195138)"
           inkscape:connector-curvature="0"
           style="stroke:#009bb3;stroke-width:1.26125991;stroke-linecap:round;stroke-linejoin:round" />
        <path
           d="M 24.508604,123.88216 C 45.539573,119.42181 59.711991,111.44055 59.440279,102.76615 59.071451,90.908882 31.854002,82.014675 -2.4553308,82.106729"
           id="path26"
           transform="matrix(0,1,1,0,-74.499698,74.499698)"
           inkscape:connector-curvature="0"
           style="stroke:#009bb3;stroke-width:1.26125991;stroke-linecap:round;stroke-linejoin:round" />
        <polyline
           id="path28"
           transform="matrix(0,1,1,0,-39.51729,39.51729)"
           points="44.476614 79.3289537 61.1274071 92.0213726 41.5703108 84.2148944 36.0744607 89.9354289 37.8267111 82.0085905 21.1757378 69.3163517 40.7331945 77.124992 46.2288644 71.4042774 44.476614 79.3289537"
           style="fill:#009bb3;fill-rule:nonzero" />
        <path
           d="m 8.371583,82.903028 1.3079266,7.035488 4.9046794,0.778017 c 0.643243,0.101802 0.972071,-0.264864 0.844324,-0.943602 l -0.894054,-4.81495 c -0.127747,-0.6809 -0.614774,-1.175134 -1.258016,-1.276936 L 8.371583,82.903028 Z M 64.1281,62.742689 l 1.338377,7.193866 c 0.423603,2.274953 2.868826,4.509725 4.952067,4.840896 l 9.012423,1.428287 c 1.518377,0.241261 2.573151,-1.454413 2.263241,-3.114591 l -0.442342,-2.315133 c -0.309729,-1.659998 -2.005223,-3.424501 -3.52342,-3.665582 L 68.373141,65.625389 68.238186,64.78593 c -0.177297,-0.955494 0.456576,-1.700539 1.33153,-1.560899 L 80.027002,64.890074 79.322318,61.096565 67.526475,59.225936 C 65.443054,58.894945 63.70702,60.465214 64.1281,62.742689 Z m -23.374569,7.328641 3.767563,0.595855 -2.892429,-15.551335 -3.852068,-0.610233 2.889726,15.549137 0.08721,0.01658 z M 15.702746,51.003224 11.847976,50.393495 13.725812,60.49134 c 0.236396,1.265224 -0.146667,1.676395 -1.366846,1.482701 L 5.6425769,60.907196 3.4409576,49.05946 -0.41381304,48.447065 2.4760938,63.998364 l 0.08991,0.01423 12.7866534,2.028826 c 1.934592,0.307568 2.984501,-0.865404 2.603781,-2.910987 z m -18.512052,1.017098 -0.7569361,-4.072428 -16.1164149,-2.556358 5.022913,27.030422 13.3142202,2.11171 -0.6882875,-3.70324 -9.4594497,-1.5018 -1.444863,-7.775667 7.707199,1.222701 -0.6882876,-3.701257 -7.7070184,-1.222521 -1.447206,-7.777866 z m 0.5509904,2.963114 -9.1095394,-1.444683 0.342882,1.848989 7.3571094,1.168467 1.7902683,9.627197 -7.3571093,-1.168287 0.3428825,1.85171 9.10935974,1.445044 -2.47585324,-13.328437 z m 20.2147536,-6.496263 0.05928,0.323981 c 0.25063,-0.01872 0.586306,-0.115855 0.879458,-0.07095 l 7.574767,1.187224 C 26.188501,48.41602 24.192647,48.037642 21.146705,47.55566 l -3.466844,-0.551315 -1.858916,-9.996043 4.554769,0.721282 c 11.214043,1.106626 15.480705,6.902656 16.849532,13.813117 l 13.66413,2.168502 2.201619,11.84806 1.111711,0.177297 c 1.218016,0.193874 1.038197,0.413873 0.804143,-0.851531 l -2.015133,-10.840493 9.809719,1.556179 0.134595,0.718918 c 0.740359,-0.326306 1.605944,-0.442342 2.521258,-0.297838 l 16.965207,2.691169 1.582161,8.515666 -1.099639,0.783063 c 0.953153,1.127926 1.695494,2.509006 1.910809,3.667743 l 0.267207,1.343242 c 0.846666,5.022878 -3.78378,6.35675 -5.898012,6.020895 L 69.448996,77.49925 c -1.724143,-0.274234 -3.622879,-1.475494 -5.003959,-3.067204 -1.277116,1.265224 -3.249366,1.757115 -4.396392,1.575134 l -10.838186,-1.719278 1.213152,-2.681799 9.776385,1.549008 c 1.409368,0.224504 2.350448,-0.338198 2.608466,-1.454413 -0.103964,-0.295676 -2.608466,-13.638184 -2.608466,-13.638184 l -3.504861,-0.555855 1.878016,10.100349 c 0.234054,1.265044 -0.149008,1.674413 -1.367025,1.480539 l -6.71639,-1.066665 -2.203781,-11.847916 -3.852608,-0.612611 2.521078,13.56503 -3.171348,3.741257 -11.417465,-4.126842 5.410985,0.858558 0.08721,0.01171 -3.440717,-18.511908 C 33.547953,46.394202 28.52976,41.898567 24.078954,41.191505 l -4.55459,-0.721423 0.69063,3.703618 3.464501,0.54863 c 3.045942,0.48472 6.474948,3.532789 7.066118,6.72093 l 0.373694,2.005403 -9.021973,-1.430809 c -1.934412,-0.307423 -2.984501,0.867891 -2.603601,2.911312 l 1.617476,8.702711 c 0.286126,1.546485 1.25099,2.830628 2.54234,3.497474 l 0.02108,0.232072 4.526301,3.48324 -2.643781,-0.444685 c -1.407025,-0.222342 -4.015671,-1.276935 -5.673327,-3.391167 -1.253332,1.494413 -3.445582,2.081079 -4.679995,1.884863 l -9.7244941,-1.544323 1.584683,8.518189 7.0945871,1.125765 c 3.776572,0.598197 7.955307,4.84558 8.697828,8.834945 l 1.066666,5.739634 c 0.742522,3.991887 -2.064502,7.130082 -5.841255,6.531705 L 2.5777153,95.640132 -0.72588478,77.865916 -15.002626,75.600333 c -1.208287,-0.191531 -2.383782,-1.383422 -2.620178,-2.660537 l -5.335255,-28.697628 c -0.236487,-1.276953 0.551026,-2.158916 1.759493,-1.967547 l 27.2409623,4.323058 2.2039617,11.848078 1.109188,0.177297 c 1.220179,0.191531 1.040539,0.411351 0.803963,-0.853873 L 8.1445563,46.931156 Z m 51.135441,21.002356 -0.0827,-0.449369 7.288281,1.156395 c 0.574774,0.09243 1.135494,0.674054 1.253692,1.303062 0.115856,0.629008 -0.255495,1.064323 -0.830089,0.972071 L 74.847729,72.176012 71.861425,71.700698 71.104489,71.5825 c -0.875134,-0.13964 -1.835313,-1.137477 -2.01261,-2.092971 z M 24.237512,62.158726 23.37427,57.513866 c -0.236396,-1.267386 0.146666,-1.676575 1.367025,-1.482701 l 7.065939,1.120719 1.513692,8.144856 -7.066119,-1.118737 c -1.220359,-0.193874 -1.783061,-0.751891 -2.017295,-2.019277 z m 2.405043,-1.693512 c 0.238918,1.175494 0.674053,1.005044 1.865944,1.194053 l 1.109188,0.175315 -0.345225,-1.849367 -1.109368,-0.177297 c -1.191711,-0.18937 -1.716755,-0.508649 -1.520539,0.657296"
           id="path30"
           transform="matrix(0,1,1,0,-36.498038,36.498038)"
           inkscape:connector-curvature="0"
           style="fill:#009bb3;fill-rule:nonzero" />
        <path
           d="m 55.100274,64.233586 -1.040719,4.12432 -0.586486,-0.07099 L 53.28424,67.26998 C 53.15415,66.565296 52.586403,65.990702 51.921719,65.884215 L 47.892354,65.245657 C 47.22767,65.139351 46.846769,65.564936 46.97722,66.26962 l 2.031169,10.923412 c 0.13009,0.702342 0.697477,1.277116 1.362161,1.383422 l 4.029725,0.638558 c 0.664324,0.106486 1.045404,-0.319279 0.914954,-1.021801 l -0.26,-1.390449 8.147199,1.293693 0.309729,1.664863 c 0.78018,4.202338 -2.076394,7.397289 -6.054228,6.768101 L 49.663523,85.292663 C 45.688032,84.661312 41.43128,80.338254 40.65092,76.136096 L 38.482454,64.472505 c -0.78054,-4.202338 2.076214,-7.397289 6.054048,-6.765939 l 2.605943,0.411531 7.957829,6.115489"
           id="path32"
           transform="matrix(0,1,1,0,-21.120484,21.120484)"
           inkscape:connector-curvature="0"
           style="fill:#009bb3;fill-rule:nonzero" />
        <path
           d="m 47.90643,79.689944 c 0.213153,0.572432 0.359639,0.789909 0.468648,1.376395 l 0.276577,1.482701 -3.24252,-0.515495 2.497295,-2.343601"
           id="path34"
           transform="matrix(0,1,1,0,-34.089097,34.089097)"
           inkscape:connector-curvature="0"
           style="fill:#009bb3;fill-rule:nonzero" />
      </g>
    </g>
  </g>
</svg>
